images-mobile/svg/icon5.svg

<svg width="110" height="56" viewBox="0 0 110 56" fill="none" xmlns="http://www.w3.org/2000/svg">
<path d="M28.6298 43.6064C28.8752 43.8799 29.006 44.2225 28.9992 44.5741C29.0117 44.8034 28.9667 45.0323 28.8677 45.2439C28.7686 45.4555 28.6179 45.6443 28.4268 45.7964C27.9499 46.1206 27.3592 46.2791 26.7629 46.2427H23.8379V40.1103H26.703C27.2686 40.0765 27.8297 40.2205 28.2904 40.5178C28.4754 40.6572 28.6219 40.8334 28.7183 41.0325C28.8148 41.2316 28.8585 41.4482 28.8461 41.6651C28.8629 42.0034 28.7449 42.336 28.5133 42.6028C28.291 42.8465 27.9838 43.0154 27.6415 43.0822C28.0295 43.1459 28.3798 43.3317 28.6298 43.6064ZM25.1989 42.6807H26.4235C26.7018 42.6993 26.9783 42.6269 27.2022 42.477C27.2941 42.402 27.3657 42.3089 27.4113 42.205C27.4569 42.1011 27.4753 41.9892 27.4651 41.8778C27.4737 41.7669 27.4549 41.6556 27.41 41.552C27.3652 41.4484 27.2953 41.3551 27.2055 41.2787C26.9749 41.1245 26.6899 41.0511 26.4035 41.072H25.1989V42.6807ZM27.322 45.0324C27.4203 44.9556 27.4975 44.8595 27.5478 44.7514C27.598 44.6433 27.6198 44.5262 27.6115 44.4093C27.619 44.291 27.5962 44.1728 27.5448 44.0637C27.4935 43.9546 27.415 43.8576 27.3153 43.7802C27.0757 43.6203 26.7811 43.5418 26.4834 43.5585H25.1989V45.2451H26.5C26.7929 45.2603 27.0828 45.1853 27.322 45.0324Z" fill="#8E8F99"/>
<path d="M34.4868 46.2427L32.8928 43.8461H32.2939V46.2427H30.9229V40.1103H33.5185C34.1727 40.0692 34.8195 40.2558 35.3254 40.6316C35.6882 40.9644 35.9071 41.403 35.9425 41.8682C35.9779 42.3335 35.8275 42.7948 35.5184 43.169C35.1982 43.4993 34.7607 43.7195 34.2805 43.7922L35.9776 46.2427H34.4868ZM32.2939 43.0103H33.4153C34.194 43.0103 34.5833 42.7007 34.5833 42.0816C34.5913 41.9551 34.5699 41.8286 34.5207 41.71C34.4714 41.5914 34.3953 41.4833 34.2971 41.3925C34.0511 41.2083 33.7342 41.1189 33.4153 41.1439H32.2806L32.2939 43.0103Z" fill="#8E8F99"/>
<path d="M41.9802 45.0086H39.2482L38.7657 46.2428H37.3281L39.8372 40.1793H41.3912L43.8903 46.2428H42.4528L41.9802 45.0086ZM41.6142 44.0799L40.6159 41.4915L39.6176 44.0799H41.6142Z" fill="#8E8F99"/>
<path d="M51.361 46.2428H50L46.9485 42.0726V46.2428H45.5908V40.1104H46.9485L50 44.3045V40.1104H51.361V46.2428Z" fill="#8E8F99"/>
<path d="M59.1278 44.7749C58.8464 45.2378 58.4176 45.6145 57.8965 45.8563C57.3041 46.1257 56.6466 46.2585 55.9831 46.2428H53.5605V40.1104H55.9831C56.6455 40.0948 57.3021 40.2244 57.8965 40.4879C58.4175 40.7242 58.8468 41.0971 59.1278 41.5574C59.4079 42.0561 59.5539 42.6072 59.5539 43.1661C59.5539 43.725 59.4079 44.2761 59.1278 44.7749ZM57.5704 44.6281C57.9589 44.2207 58.1724 43.7015 58.1724 43.1646C58.1724 42.6277 57.9589 42.1086 57.5704 41.7012C57.1009 41.3322 56.4887 41.1448 55.8666 41.1799H54.9216V45.1493H55.8666C56.4887 45.1844 57.1009 44.9971 57.5704 44.6281Z" fill="#8E8F99"/>
<path d="M42.832 6.00012C42.832 6.00012 60.399 11.9708 60.0263 20.6107V35.2242C60.0263 35.2242 42.4726 29.2506 42.8387 20.6107L42.832 6.00012Z" fill="#8E8F99"/>
<path d="M75.6768 31.8028C78.9944 29.7473 82.832 28.4742 86.8379 28.1V23.5254C82.2221 25.1269 78.3065 28.0309 75.6768 31.8028Z" fill="#8E8F99"/>
<path d="M73.6832 33.1812C76.3987 28.2587 81.1063 24.4602 86.8376 22.567V9.3855C86.8376 9.3855 61.82 17.8906 62.3491 30.1943V51.0002C62.3491 51.0002 63.4639 50.6197 65.2176 49.9067C65.2176 49.2417 65.2176 48.5706 65.2974 47.8965C65.8152 42.1845 68.8315 36.8915 73.6832 33.1812Z" fill="#8E8F99"/>
<path d="M71.3043 40.9103C71.4358 39.4674 71.729 38.0401 72.1795 36.6503C69.1585 39.8545 67.3291 43.8305 66.9484 48.0193C66.9118 48.4148 66.8918 48.8102 66.8818 49.2177C68.3028 48.6035 69.9566 47.8366 71.6937 46.9349C71.2504 44.9531 71.1193 42.925 71.3043 40.9103Z" fill="#8E8F99"/>
<path d="M72.2996 40.9853C72.1331 42.808 72.2371 44.6426 72.6091 46.4406C79.4442 42.7588 87.1245 37.0697 86.8284 30.1944V29.5952C81.9449 30.0871 77.376 32.009 73.8237 35.0655C72.992 36.9597 72.4783 38.9548 72.2996 40.9853Z" fill="#8E8F99"/>
</svg>

<svg xmlns="http://www.w3.org/2000/svg" width="110" height="56" fill="none"><path fill="#8E8F99" d="M28.63 43.606c.245.274.376.616.37.968.012.23-.033.458-.132.67-.1.212-.25.4-.441.552a2.68 2.68 0 0 1-1.664.447h-2.925V40.11h2.865a2.647 2.647 0 0 1 1.587.408c.185.14.332.315.428.514.097.2.14.416.128.633.017.338-.101.671-.333.938a1.59 1.59 0 0 1-.872.48c.389.063.739.249.989.523Zm-3.431-.925h1.224c.279.018.555-.054.78-.204a.732.732 0 0 0 .208-.272.662.662 0 0 0 .054-.327.684.684 0 0 0-.055-.326.752.752 0 0 0-.204-.273 1.28 1.28 0 0 0-.802-.207h-1.205v1.609Zm2.123 2.351a.77.77 0 0 0 .226-.28.694.694 0 0 0 .064-.343.704.704 0 0 0-.067-.345.781.781 0 0 0-.23-.284 1.366 1.366 0 0 0-.832-.221H25.2v1.686H26.5c.293.015.583-.06.822-.213ZM34.487 46.243l-1.594-2.397h-.6v2.397h-1.37V40.11h2.596a2.752 2.752 0 0 1 1.806.522c.363.332.582.771.617 1.236a1.82 1.82 0 0 1-.424 1.301c-.32.33-.757.55-1.237.623l1.697 2.45h-1.491Zm-2.193-3.233h1.121c.779 0 1.168-.31 1.168-.928a.83.83 0 0 0-.062-.372.908.908 0 0 0-.224-.318 1.307 1.307 0 0 0-.882-.248h-1.134l.013 1.866ZM41.98 45.009h-2.732l-.482 1.234h-1.438l2.51-6.064h1.553l2.5 6.064h-1.438l-.473-1.234Zm-.366-.93-.998-2.587-.998 2.588h1.996ZM51.361 46.243H50l-3.051-4.17v4.17H45.59V40.11h1.358L50 44.304V40.11h1.361v6.133ZM59.128 44.775a2.82 2.82 0 0 1-1.231 1.081c-.593.27-1.25.402-1.914.387h-2.422V40.11h2.422a4.472 4.472 0 0 1 1.914.378c.52.236.95.61 1.23 1.07.28.498.427 1.05.427 1.608a3.28 3.28 0 0 1-.426 1.609Zm-1.558-.147a2.12 2.12 0 0 0 .602-1.463 2.12 2.12 0 0 0-.602-1.464 2.535 2.535 0 0 0-1.703-.521h-.945v3.97h.945a2.535 2.535 0 0 0 1.703-.522ZM42.832 6s17.567 5.97 17.194 14.61v14.614S42.473 29.251 42.84 20.611L42.832 6ZM75.677 31.803c3.317-2.056 7.155-3.329 11.16-3.703v-4.575c-4.615 1.602-8.53 4.506-11.16 8.278Z"/><path fill="#8E8F99" d="M73.683 33.181c2.716-4.922 7.423-8.72 13.155-10.614V9.386S61.82 17.89 62.349 30.194V51s1.115-.38 2.869-1.093c0-.665 0-1.336.08-2.01.517-5.712 3.534-11.005 8.385-14.716Z"/><path fill="#8E8F99" d="M71.304 40.91a19.57 19.57 0 0 1 .876-4.26c-3.022 3.205-4.85 7.18-5.232 11.37-.036.395-.056.79-.066 1.198a75.86 75.86 0 0 0 4.812-2.283 19.43 19.43 0 0 1-.39-6.025ZM72.3 40.985a18.564 18.564 0 0 0 .31 5.456c6.834-3.682 14.514-9.371 14.218-16.247v-.599c-4.883.492-9.452 2.414-13.004 5.47a18.817 18.817 0 0 0-1.524 5.92Z"/></svg>
